packages/core/src/svgs/tokens/branded/UNO.svg

<svg width="24" height="24" viewBox="0 0 24 24" fill="none" xmlns="http://www.w3.org/2000/svg">
<path d="M4.42413 5.33362H2V13.818C2 15.104 2.51079 16.3371 3.42002 17.2463C4.32926 18.1556 5.56244 18.6664 6.84827 18.6664H7.45431C8.74014 18.6664 9.97332 18.1556 10.8826 17.2463C11.7918 16.3371 12.3026 15.104 12.3026 13.818V5.33362H9.87844V13.5151C9.87844 14.2383 9.5911 14.9321 9.07962 15.4435C8.56824 15.9549 7.87457 16.2422 7.1513 16.2422C6.42801 16.2422 5.73435 15.9549 5.2229 15.4435C4.71146 14.9321 4.42413 14.2383 4.42413 13.5151V5.33362ZM13.5146 8.96983H15.9388V18.0603H13.5146V8.96983Z" fill="url(#paint0_linear_364_5737)"/>
<path d="M18.6666 8.66718C17.7827 8.66718 16.9348 9.01835 16.3098 9.6435C15.6846 10.2685 15.3335 11.1164 15.3335 12.0003V18.0607H15.9396V12.6064C15.9396 12.1242 16.131 11.6618 16.472 11.3207C16.813 10.9798 17.2755 10.7883 17.7577 10.7883C18.2399 10.7883 18.7023 10.9798 19.0432 11.3207C19.3841 11.6618 19.5757 12.1242 19.5757 12.6064V18.0607H21.9999V12.0003C21.9999 11.1164 21.6486 10.2685 21.0236 9.6435C20.3984 9.01835 19.5507 8.66718 18.6666 8.66718Z" fill="url(#paint1_linear_364_5737)"/>
<defs>
<linearGradient id="paint0_linear_364_5737" x1="8.96932" y1="5.33362" x2="8.96932" y2="18.6664" gradientUnits="userSpaceOnUse">
<stop stop-color="#5079DD"/>
<stop offset="1" stop-color="#3E3BAC"/>
</linearGradient>
<linearGradient id="paint1_linear_364_5737" x1="18.6666" y1="8.66718" x2="18.6666" y2="18.0607" gradientUnits="userSpaceOnUse">
<stop stop-color="#5079DD"/>
<stop offset="1" stop-color="#3E3BAC"/>
</linearGradient>
</defs>
</svg>

<svg xmlns="http://www.w3.org/2000/svg" width="24" height="24" fill="none" viewBox="0 0 24 24">
    <path fill="url(#UNO__a)" d="M4.424 5.334H2v8.484a4.85 4.85 0 0 0 4.848 4.848h.606a4.85 4.85 0 0 0 4.849-4.848V5.334H9.878v8.181a2.727 2.727 0 0 1-5.454 0zm9.09 3.636h2.425v9.09h-2.424z"/>
    <path fill="url(#UNO__b)" d="M18.667 8.667A3.333 3.333 0 0 0 15.333 12v6.06h.607v-5.454a1.818 1.818 0 1 1 3.636 0v5.455H22V12a3.333 3.333 0 0 0-3.333-3.334"/>
    <defs>
        <linearGradient id="UNO__a" x1="8.969" x2="8.969" y1="5.334" y2="18.666" gradientUnits="userSpaceOnUse">
            <stop stop-color="#5079DD"/>
            <stop offset="1" stop-color="#3E3BAC"/>
        </linearGradient>
        <linearGradient id="UNO__b" x1="18.667" x2="18.667" y1="8.667" y2="18.061" gradientUnits="userSpaceOnUse">
            <stop stop-color="#5079DD"/>
            <stop offset="1" stop-color="#3E3BAC"/>
        </linearGradient>
    </defs>
</svg>
